plasma/desktoptheme/Materia/icons/cantata.svg

<svg xmlns="http://www.w3.org/2000/svg" width="32" height="32" version="1">
 <g id="22-22-cantata" transform="translate(32,10)">
  <rect style="opacity:0.001" width="22" height="22" x="0" y="0"/>
  <path style="fill:#dfdfdf" d="M 10.810547,2.9806386 A 8,8 0 0 0 2.9999995,11.023608 8.0000005,8.0000005 0 0 0 19,11.023608 8,8 0 0 0 10.810547,2.9806386 Z M 11,4.9786856 c 3.308423,0 6,2.6915771 6,6.0000004 0,3.308422 -2.691577,5.999998 -6,5.999998 -3.3084235,0 -6.0000005,-2.691576 -6.0000005,-5.999998 0,-3.3084233 2.691577,-6.0000004 6.0000005,-6.0000004 z m 0.400391,0.9999999 C 11.000391,5.9786855 11,6.3966543 11,6.3966543 v 4.7890627 c -0.384502,-0.136042 -0.670523,-0.206361 -1.0996095,-0.207031 -1.546397,0 -2.900391,0.89543 -2.900391,1.999998 0,1.10457 1.453603,2 3,2 1.5463985,0 3.0000015,-0.89543 3.0000015,-2 V 7.9786855 c 0,0 2.26729,1.1586675 1.324218,2.0234385 -0.259008,0.14857 -0.344328,0.378196 -0.298828,0.578125 0.06909,0.303608 0.439979,0.538683 0.953125,0.320312 C 15.749531,10.498572 16,9.7779042 16,9.1779043 c 0,-1.8 -2.999608,-3.1992188 -4.599609,-3.1992188 z"/>
 </g>
 <g id="cantata">
  <rect style="opacity:0.001" width="32" height="32" x="0" y="0"/>
  <g>
   <path style="opacity:0.2" d="m 29.999781,17.078316 a 14,14 0 1 0 -27.9995619,0 14,14 0 0 0 27.9995619,0"/>
   <path style="fill:#4f4f4f" d="m 29.999781,16.078318 a 14,14 0 1 0 -27.9995619,0 14,14 0 0 0 27.9995619,0"/>
   <path style="opacity:0.2" d="m 6.0000001,16.999998 c 0,5.514038 4.4859619,10 10.0000009,10 5.514038,0 9.999999,-4.485962 9.999999,-10 0,-5.514038 -4.485961,-10.0000004 -9.999999,-10.0000004 -5.514039,0 -10.0000009,4.4859624 -10.0000009,10.0000004 z"/>
   <path style="fill:#ffffff" d="m 6.0000001,16 c 0,5.514038 4.4859619,10 10.0000009,10 C 21.514039,26 26,21.514038 26,16 26,10.485962 21.514039,5.9999999 16.000001,5.9999999 10.485962,5.9999999 6.0000001,10.485962 6.0000001,16 Z"/>
   <path style="fill:#366adb" d="m 16,8.7330011 v 7.6309979 c -0.67288,-0.238074 -1.349099,-0.362828 -2.1,-0.364 -2.706195,0 -4.9,1.567003 -4.9,3.5 0,1.932997 2.193805,3.5 4.9,3.5 2.706195,0 5.1,-1.567003 5.1,-3.5 V 11 c 0,0 1.40919,1.216259 1.8845,2.477607 0.242945,0.644713 0.242226,1.301205 -0.316004,1.813085 -0.453263,0.259997 -0.60189,0.661842 -0.522265,1.011717 0.120915,0.531315 0.767227,0.944064 1.665234,0.561915 1.349275,-0.703481 1.788035,-1.964648 1.788035,-3.014649 0,-3.15 -3.9995,-5.8499995 -6.7995,-5.8499995 -0.7,0 -0.7,0.7333256 -0.7,0.7333256 z"/>
   <path style="opacity:0.1;fill:#ffffff" d="M 15.669922,2.0039062 A 14,14 0 0 0 2,16.078125 14,14 0 0 0 2.015625,16.339844 14,14 0 0 1 29.980469,16.626953 14,14 0 0 0 30,16.078125 14,14 0 0 0 15.669922,2.0039062 Z"/>
  </g>
 </g>
</svg>

<?xml version="1.0" encoding="UTF-8"?>
<svg width="32" height="32" version="1" xmlns="http://www.w3.org/2000/svg">
 <g id="22-22-cantata" transform="translate(32,10)">
  <rect width="22" height="22" opacity=".001"/>
  <path d="m10.811 2.9806a8 8 0 0 0-7.8105 8.043 8 8 0 0 0 16 0 8 8 0 0 0-8.1895-8.043zm0.18945 1.998c3.3084 0 6 2.6916 6 6 0 3.3084-2.6916 6-6 6-3.3084 0-6-2.6916-6-6 0-3.3084 2.6916-6 6-6zm0.40039 1c-0.4 0-0.40039 0.41797-0.40039 0.41797v4.7891c-0.3845-0.13604-0.67052-0.20636-1.0996-0.20703-1.5464 0-2.9004 0.89543-2.9004 2 0 1.1046 1.4536 2 3 2 1.5464 0 3-0.89543 3-2v-5s2.2673 1.1587 1.3242 2.0234c-0.25901 0.14857-0.34433 0.3782-0.29883 0.57812 0.06909 0.30361 0.43998 0.53868 0.95312 0.32031 0.77102-0.40199 1.0215-1.1227 1.0215-1.7227 0-1.8-2.9996-3.1992-4.5996-3.1992z" fill="#dfdfdf"/>
 </g>
 <g id="cantata">
  <rect width="32" height="32" opacity=".001"/>
  <path d="m30 17.078a14 14 0 1 0-28 0 14 14 0 0 0 28 0" opacity=".2"/>
  <path d="m30 16.078a14 14 0 1 0-28 0 14 14 0 0 0 28 0" fill="#4f4f4f"/>
  <path d="m6 17c0 5.514 4.486 10 10 10 5.514 0 10-4.486 10-10s-4.486-10-10-10c-5.514 0-10 4.486-10 10z" opacity=".2"/>
  <path d="m6 16c0 5.514 4.486 10 10 10 5.514 0 10-4.486 10-10s-4.486-10-10-10c-5.514 0-10 4.486-10 10z" fill="#fff"/>
  <path d="m16 8.733v7.631c-0.67288-0.23807-1.3491-0.36283-2.1-0.364-2.7062 0-4.9 1.567-4.9 3.5s2.1938 3.5 4.9 3.5 5.1-1.567 5.1-3.5v-8.5s1.4092 1.2163 1.8845 2.4776c0.24294 0.64471 0.24223 1.3012-0.316 1.8131-0.45326 0.26-0.60189 0.66184-0.52226 1.0117 0.12092 0.53132 0.76723 0.94406 1.6652 0.56192 1.3493-0.70348 1.788-1.9646 1.788-3.0146 0-3.15-3.9995-5.85-6.7995-5.85-0.7 0-0.7 0.73333-0.7 0.73333z" fill="#366adb"/>
  <path d="m15.67 2.0039a14 14 0 0 0-13.67 14.074 14 14 0 0 0 0.015625 0.26172 14 14 0 0 1 27.965 0.28711 14 14 0 0 0 0.019531-0.54883 14 14 0 0 0-14.33-14.074z" fill="#fff" opacity=".1"/>
 </g>
</svg>
